images/banjaxed-logo.svg

<svg width="119" height="36" viewBox="0 0 119 36" fill="none" xmlns="http://www.w3.org/2000/svg">
<g clip-path="url(#clip0_753_2903)">
<path d="M0 11.7136V0H1.69663V8.20013C2.63332 6.2923 4.58327 5.17248 6.96327 5.17248C10.4449 5.07176 13.3433 7.82686 13.4435 11.3285C13.4435 11.4648 13.4435 11.607 13.4435 11.7433C13.4435 15.6122 10.657 18.4147 6.68639 18.4147C2.81594 18.4147 0.00589109 15.7663 0.00589109 11.7196M11.7292 11.7907C11.8411 9.1185 9.7851 6.86109 7.12822 6.74852C6.99272 6.74259 6.85134 6.74259 6.71584 6.74852C4.07074 6.6241 1.82035 8.68598 1.70252 11.3522C1.69663 11.5003 1.69663 11.6485 1.70252 11.7966C1.57881 14.4569 3.62891 16.7202 6.2799 16.8387C6.42718 16.8446 6.57445 16.8446 6.71584 16.8387C9.37272 16.9513 11.6172 14.8776 11.7292 12.2054C11.735 12.0691 11.735 11.9329 11.7292 11.7966V11.7907Z" fill="#040504"/>
<path d="M14.9103 11.8618C14.9103 7.93945 17.6968 5.16064 21.6497 5.16064C25.6027 5.16064 28.3597 7.88612 28.3597 11.8618V18.077H26.7927V14.9664C25.909 17.2061 23.8294 18.4029 21.4023 18.4029C17.9325 18.5155 15.0341 15.7841 14.9162 12.2943C14.9162 12.1462 14.9162 12.004 14.9162 11.8558M26.6631 11.7788C26.6631 8.99409 24.4186 6.73668 21.6497 6.73668C18.8809 6.73668 16.6364 8.99409 16.6364 11.7788C16.5245 14.451 18.5805 16.7084 21.2374 16.8209C21.3729 16.8269 21.5143 16.8269 21.6497 16.8209C24.3066 16.9335 26.5511 14.8657 26.6631 12.1936C26.669 12.0573 26.669 11.9151 26.6631 11.7788Z" fill="#040504"/>
<path d="M29.9268 11.5062C29.9268 7.32911 32.4069 5.1665 36.1065 5.1665C39.8061 5.1665 42.2863 7.33504 42.2863 11.5062V18.077H40.5896V11.5062C40.5896 8.40153 38.8164 6.74254 36.1124 6.74254C33.4084 6.74254 31.6352 8.3956 31.6352 11.5062V18.077H29.9268V11.5062Z" fill="#040504"/>
<path d="M42.1802 22.1535H42.3805C44.2538 22.1535 44.9372 21.3418 44.9372 19.1969V5.49843H46.6338V19.1199C46.6338 22.1238 45.4674 23.6229 42.5336 23.6229H42.1802V22.1475V22.1535ZM44.5072 1.75386C44.5072 1.03694 45.0845 0.456299 45.7973 0.456299C46.5101 0.456299 47.0875 1.03694 47.0875 1.75386C47.0875 2.47078 46.5101 3.05143 45.7973 3.05143C45.1022 3.06328 44.5248 2.50633 44.5072 1.80719V1.75386Z" fill="#040504"/>
<path d="M48.7782 11.8618C48.7782 7.93945 51.5647 5.16064 55.5117 5.16064C59.4587 5.16064 62.2217 7.88612 62.2217 11.8618V18.077H60.6546V14.9664C59.771 17.2061 57.6914 18.4029 55.2643 18.4029C51.8003 18.5155 48.896 15.7841 48.7841 12.2943C48.7841 12.1462 48.7841 12.004 48.7841 11.8558M60.5309 11.7788C60.5309 8.99409 58.2864 6.73668 55.5176 6.73668C52.7488 6.73668 50.5043 8.99409 50.5043 11.7788C50.5043 14.5635 52.7488 16.8209 55.5176 16.8209C58.2864 16.8209 60.5309 14.5635 60.5309 11.7788Z" fill="#040504"/>
<path d="M76.3603 11.7906C76.3603 7.97493 79.1468 5.1665 83.0938 5.1665C87.0408 5.1665 89.7802 7.96308 89.7802 11.7906V12.3535H78.1099C78.269 14.9723 80.4958 16.969 83.0997 16.8387C85.0732 16.8387 86.5931 16.0269 87.4061 14.5694H89.2559C88.2956 16.8861 86.0158 18.4147 83.1056 18.4147C79.1586 18.4147 76.3721 15.6122 76.3721 11.7906M88.0188 10.8248C87.6123 8.2771 85.6388 6.74847 83.1056 6.74847C80.5724 6.74847 78.5518 8.35413 78.1689 10.8248H88.0188Z" fill="#040504"/>
<path d="M91.2471 11.7373C91.1234 8.24161 93.8392 5.29691 97.3149 5.17248C97.4504 5.17248 97.5918 5.17248 97.7273 5.17248C100.107 5.17248 102.057 6.2923 102.994 8.20013V0H104.691V11.7136C104.691 15.7604 101.881 18.4147 98.0101 18.4147C94.0336 18.4147 91.253 15.6122 91.253 11.7373M103 11.7847C103 9 100.755 6.74259 97.9865 6.74259C95.2177 6.74259 92.9732 9 92.9732 11.7847C92.9732 14.5695 95.2177 16.8269 97.9865 16.8269C100.755 16.8269 103 14.5695 103 11.7847Z" fill="#040504"/>
<path d="M74.0451 18.1719C73.833 18.1719 73.6209 18.2015 73.4206 18.2608L70.5517 12.6854L75.4589 11.7315L70.534 10.7776L72.319 7.42404C73.6975 7.77953 75.0996 6.94412 75.4472 5.55768C75.8006 4.17124 74.97 2.7611 73.5915 2.41153C72.213 2.05603 70.8109 2.89145 70.4633 4.27789C70.2159 5.25551 70.5576 6.29237 71.3411 6.93227L69.45 10.5524L66.4456 4.71633C67.5354 3.81574 67.6886 2.19823 66.7931 1.10804C65.8977 0.0119238 64.2894 -0.142125 63.2055 0.758468C62.1156 1.65906 61.9625 3.27657 62.8579 4.36676C63.3469 4.96518 64.0715 5.30291 64.8373 5.30291C65.0494 5.30291 65.2615 5.27328 65.4618 5.21403L68.3307 10.7894L63.4235 11.7433L68.3189 12.6972L66.5634 16.0567C65.1849 15.7012 63.7828 16.5366 63.4352 17.923C63.0818 19.3095 63.9124 20.7196 65.2909 21.0692C66.6694 21.4247 68.0715 20.5893 68.4191 19.2028C68.6665 18.2252 68.3248 17.1884 67.5413 16.5485L69.4265 12.9105L72.4368 18.7585C71.347 19.6591 71.1938 21.2766 72.0892 22.3668C72.9847 23.4629 74.593 23.6169 75.6769 22.7163C76.7668 21.8157 76.9199 20.1982 76.0245 19.108C75.5355 18.5096 74.8109 18.1719 74.0451 18.1719Z" fill="#040504"/>
<path d="M65.774 31.023C65.7446 30.6261 65.397 30.3298 64.6488 30.3298C63.9596 30.3298 63.5943 30.6024 63.5943 30.9993C63.5943 31.4793 64.1245 31.6274 64.8255 31.8051C65.721 32.0362 66.9935 32.3917 66.9935 33.7544C66.9935 35.2949 65.8447 36 64.1775 36C62.5103 36 61.2909 35.2238 61.2909 33.8315H62.9168C62.9168 34.2818 63.3763 34.5958 64.2423 34.5958C65.0023 34.5958 65.3675 34.3351 65.3675 33.944C65.3675 33.4286 64.7725 33.2923 64.1481 33.1264C63.1584 32.8657 61.9684 32.5517 61.9684 31.2186C61.9684 29.6781 63.0936 28.9197 64.6783 28.9197C66.263 28.9197 67.3882 29.7077 67.3882 31.029H65.774V31.023Z" fill="#040504"/>
<path d="M71.942 28.9138C73.8094 28.9138 75.2999 30.1284 75.2999 32.1311C75.2999 34.2759 73.562 36.006 71.4353 36.0001C71.4118 36.0001 71.3823 36.0001 71.3587 36.0001C69.4736 36.0001 67.9832 34.7854 67.9832 32.8006C67.989 30.6498 69.7269 28.9138 71.8654 28.9197C71.8889 28.9197 71.9125 28.9197 71.9361 28.9197M73.6268 32.2436C73.6975 31.3134 73.0024 30.5017 72.0716 30.4306C71.995 30.4306 71.9125 30.4247 71.8359 30.4306C70.6283 30.4188 69.6386 31.3904 69.6268 32.6051C69.6268 32.6347 69.6268 32.6643 69.6268 32.6939C69.562 33.6242 70.263 34.4299 71.1879 34.4892C71.2645 34.4892 71.3411 34.4892 71.4177 34.4892C72.6194 34.507 73.6091 33.5471 73.6268 32.3384C73.6268 32.3029 73.6268 32.2733 73.6268 32.2377" fill="#040504"/>
<path d="M77.7565 26.1467H79.3707L77.5032 35.8222H75.889L77.7565 26.1467Z" fill="#040504"/>
<path d="M81.3442 32.4569C81.3088 32.6405 81.2911 32.8301 81.2911 33.0138C81.2263 33.7663 81.7801 34.4239 82.5224 34.4891C82.6107 34.495 82.705 34.495 82.7934 34.4891C83.73 34.4891 84.3899 33.9736 84.6196 32.7887L85.3383 29.0974H86.9643L86.222 32.9427C85.8273 34.975 84.5136 36.0059 82.7109 36.0059C80.9082 36.0059 79.6357 35.0401 79.6357 33.2153C79.6357 32.9072 79.6711 32.605 79.73 32.3028L80.3545 29.1033H81.9922L81.3442 32.4687V32.4569Z" fill="#040504"/>
<path d="M89.1204 33.1322C89.0968 33.2507 89.0792 33.3752 89.0792 33.4996C89.0438 34.0091 89.4326 34.4535 89.9393 34.4891C89.9982 34.4891 90.063 34.4891 90.1219 34.4831C90.7463 34.4831 91.1764 34.1691 91.3413 33.3515L91.3944 33.0493H93.0144L92.9319 33.5114C92.5961 35.2119 91.5357 35.9881 90.0335 35.9881C88.5313 35.9881 87.4473 35.2001 87.4473 33.7129C87.4473 33.464 87.4709 33.2211 87.518 32.9782L88.7375 26.6978H90.3634L89.9039 29.0855H93.3443L93.0615 30.5549H89.6211L89.1204 33.1263V33.1322Z" fill="#040504"/>
<path d="M95.0292 29.0916H96.6433L95.3414 35.8223H93.7272L95.0292 29.0916ZM95.1234 27.2371C95.1234 26.5853 95.6418 26.058 96.284 26.0521C96.284 26.0521 96.2957 26.0521 96.3016 26.0521C96.8201 26.0225 97.2737 26.4194 97.3031 26.9468C97.3031 26.9764 97.3031 27.006 97.3031 27.0356C97.3031 27.6874 96.7847 28.2147 96.1426 28.2206C96.1426 28.2206 96.1308 28.2206 96.1249 28.2206C95.6065 28.2562 95.1588 27.8651 95.1234 27.3437C95.1234 27.3082 95.1234 27.2726 95.1234 27.2371Z" fill="#040504"/>
<path d="M101.179 28.9138C103.047 28.9138 104.537 30.1284 104.537 32.1311C104.537 34.2759 102.8 36.006 100.673 36.0001C100.649 36.0001 100.62 36.0001 100.596 36.0001C98.7111 36.0001 97.2206 34.7854 97.2206 32.8006C97.2265 30.6498 98.9644 28.9138 101.103 28.9197C101.126 28.9197 101.15 28.9197 101.174 28.9197M102.864 32.2436C102.935 31.3134 102.24 30.5017 101.309 30.4306C101.232 30.4306 101.15 30.4247 101.073 30.4306C99.8657 30.4188 98.876 31.3904 98.8643 32.5991C98.8643 32.6288 98.8643 32.6584 98.8643 32.688C98.7995 33.6182 99.5005 34.424 100.425 34.4833C100.502 34.4833 100.579 34.4833 100.655 34.4833C101.857 34.501 102.847 33.5412 102.864 32.3325C102.864 32.297 102.864 32.2673 102.864 32.2318" fill="#040504"/>
<path d="M110.517 32.4569C110.552 32.2733 110.57 32.0837 110.57 31.9C110.629 31.1475 110.075 30.4839 109.327 30.4247C109.238 30.4188 109.144 30.4247 109.056 30.4247C108.149 30.4247 107.471 30.9402 107.241 32.1311L106.523 35.8223H104.897L105.639 31.977C106.034 29.9448 107.347 28.9138 109.15 28.9138C110.953 28.9138 112.225 29.8796 112.225 31.7045C112.225 32.0126 112.19 32.3147 112.131 32.6169L111.507 35.8164H109.869L110.517 32.451V32.4569Z" fill="#040504"/>
<path d="M117.386 31.023C117.356 30.6261 117.003 30.3298 116.261 30.3298C115.571 30.3298 115.206 30.6024 115.206 30.9993C115.206 31.4793 115.736 31.6274 116.437 31.8051C117.333 32.0362 118.605 32.3917 118.605 33.7544C118.605 35.2949 117.457 36 115.789 36C114.122 36 112.903 35.2238 112.903 33.8315H114.529C114.529 34.2818 114.988 34.5958 115.854 34.5958C116.614 34.5958 116.979 34.3351 116.979 33.944C116.979 33.4286 116.384 33.2923 115.76 33.1264C114.77 32.8657 113.58 32.5517 113.58 31.2186C113.58 29.6781 114.705 28.9197 116.29 28.9197C117.875 28.9197 119 29.7077 119 31.029H117.386V31.023Z" fill="#040504"/>
</g>
<defs>
<clipPath id="clip0_753_2903">
<rect width="119" height="36" fill="white"/>
</clipPath>
</defs>
</svg>

<svg xmlns="http://www.w3.org/2000/svg" width="119" height="36" fill="none"><g fill="#040504" clip-path="url(#a)"><path d="M0 11.714V0h1.697v8.2c.936-1.908 2.886-3.028 5.266-3.028 3.482-.1 6.38 2.655 6.48 6.157v.414c0 3.87-2.786 6.672-6.757 6.672-3.87 0-6.68-2.649-6.68-6.695m11.723.07c.112-2.671-1.944-4.929-4.6-5.041a4.782 4.782 0 0 0-.413 0C4.07 6.624 1.82 8.686 1.703 11.352a5.59 5.59 0 0 0 0 .445c-.124 2.66 1.926 4.923 4.577 5.042.147.006.294.006.436 0 2.657.112 4.901-1.961 5.013-4.634a4.804 4.804 0 0 0 0-.408v-.006ZM14.91 11.862c0-3.923 2.787-6.701 6.74-6.701 3.953 0 6.71 2.725 6.71 6.7v6.216h-1.567v-3.11c-.884 2.24-2.964 3.436-5.39 3.436-3.47.113-6.369-2.619-6.487-6.109v-.438m11.747-.077c0-2.785-2.244-5.042-5.013-5.042-2.77 0-5.014 2.257-5.014 5.042-.111 2.672 1.945 4.93 4.601 5.042.136.006.277.006.413 0 2.657.112 4.901-1.955 5.013-4.627a4.863 4.863 0 0 0 0-.415ZM29.927 11.506c0-4.177 2.48-6.34 6.18-6.34 3.7 0 6.18 2.169 6.18 6.34v6.571H40.59v-6.57c0-3.105-1.774-4.764-4.478-4.764-2.704 0-4.477 1.653-4.477 4.763v6.571h-1.708v-6.57ZM42.18 22.154h.2c1.874 0 2.557-.812 2.557-2.957V5.498h1.697V19.12c0 3.004-1.167 4.503-4.1 4.503h-.354v-1.476.007Zm2.327-20.4c0-.717.578-1.298 1.29-1.298.713 0 1.29.58 1.29 1.298 0 .717-.577 1.297-1.29 1.297a1.275 1.275 0 0 1-1.29-1.244v-.053ZM48.778 11.862c0-3.923 2.787-6.701 6.734-6.701s6.71 2.725 6.71 6.7v6.216h-1.567v-3.11c-.884 2.24-2.964 3.436-5.39 3.436-3.465.113-6.369-2.619-6.48-6.109v-.438m11.746-.077c0-2.785-2.245-5.042-5.013-5.042-2.77 0-5.014 2.257-5.014 5.042 0 2.784 2.245 5.042 5.014 5.042 2.768 0 5.013-2.258 5.013-5.042ZM76.36 11.79c0-3.815 2.787-6.623 6.734-6.623s6.686 2.796 6.686 6.624v.563H78.11c.159 2.618 2.386 4.615 4.99 4.485 1.973 0 3.493-.812 4.306-2.27h1.85c-.96 2.317-3.24 3.846-6.15 3.846-3.947 0-6.734-2.803-6.734-6.624m11.647-.966c-.407-2.548-2.38-4.077-4.913-4.077-2.534 0-4.554 1.606-4.937 4.077h9.85ZM91.247 11.737c-.124-3.495 2.592-6.44 6.068-6.565h.412c2.38 0 4.33 1.12 5.267 3.028V0h1.697v11.714c0 4.046-2.81 6.7-6.68 6.7-3.977 0-6.758-2.802-6.758-6.677m11.747.048c0-2.785-2.245-5.042-5.013-5.042-2.77 0-5.014 2.257-5.014 5.042 0 2.784 2.245 5.042 5.014 5.042 2.768 0 5.013-2.258 5.013-5.042ZM74.045 18.172c-.212 0-.424.03-.624.089l-2.87-5.576 4.908-.954-4.925-.953 1.785-3.354a2.565 2.565 0 0 0 3.128-1.866 2.582 2.582 0 0 0-1.856-3.146 2.565 2.565 0 0 0-3.128 1.866 2.605 2.605 0 0 0 .878 2.654l-1.891 3.62-3.004-5.836a2.57 2.57 0 0 0 .347-3.608 2.536 2.536 0 0 0-3.588-.35 2.57 2.57 0 0 0-.347 3.609 2.548 2.548 0 0 0 1.98.936c.211 0 .424-.03.624-.089l2.869 5.575-4.908.954 4.896.954-1.756 3.36a2.565 2.565 0 0 0-3.128 1.866 2.582 2.582 0 0 0 1.856 3.146 2.565 2.565 0 0 0 3.128-1.866 2.605 2.605 0 0 0-.878-2.654l1.886-3.638 3.01 5.848a2.57 2.57 0 0 0-.348 3.608 2.536 2.536 0 0 0 3.588.35 2.57 2.57 0 0 0 .347-3.609 2.548 2.548 0 0 0-1.979-.936ZM65.774 31.023c-.03-.397-.377-.693-1.125-.693-.69 0-1.055.272-1.055.67 0 .48.53.627 1.232.805.895.231 2.168.587 2.168 1.95 0 1.54-1.15 2.245-2.817 2.245-1.667 0-2.886-.776-2.886-2.169h1.626c0 .45.46.765 1.325.765.76 0 1.126-.26 1.126-.652 0-.515-.596-.652-1.22-.818-.99-.26-2.18-.574-2.18-1.907 0-1.54 1.126-2.3 2.71-2.3 1.585 0 2.71.789 2.71 2.11h-1.614v-.006ZM71.942 28.914c1.867 0 3.358 1.214 3.358 3.217a3.863 3.863 0 0 1-3.865 3.87h-.076c-1.885 0-3.376-1.216-3.376-3.2.006-2.151 1.744-3.887 3.882-3.881h.071m1.69 3.324a1.689 1.689 0 0 0-1.554-1.813c-.077 0-.16-.006-.236 0a2.191 2.191 0 0 0-2.21 2.174v.089a1.678 1.678 0 0 0 1.562 1.795h.23a2.178 2.178 0 0 0 2.209-2.15v-.101M77.757 26.147h1.614l-1.868 9.675H75.89l1.868-9.675ZM81.344 32.457a2.966 2.966 0 0 0-.053.557 1.36 1.36 0 0 0 1.502 1.475c.937 0 1.597-.515 1.827-1.7l.718-3.692h1.626l-.742 3.846c-.395 2.032-1.708 3.063-3.511 3.063-1.803 0-3.075-.966-3.075-2.79 0-.309.035-.611.094-.913l.624-3.2h1.638l-.648 3.366v-.012ZM89.12 33.132a1.894 1.894 0 0 0-.04.368.93.93 0 0 0 .86.99c.058 0 .123 0 .182-.007.624 0 1.054-.314 1.22-1.131l.052-.303h1.62l-.082.462c-.336 1.7-1.396 2.477-2.898 2.477-1.503 0-2.587-.788-2.587-2.275 0-.249.024-.492.071-.735l1.22-6.28h1.625l-.46 2.387h3.441l-.282 1.47h-3.44l-.502 2.571v.006ZM95.03 29.092h1.613l-1.302 6.73h-1.614l1.302-6.73Zm.093-1.855c0-.652.519-1.179 1.161-1.185h.018a.95.95 0 0 1 1.001.895v.089c0 .651-.518 1.179-1.16 1.185h-.018a.94.94 0 0 1-1.002-.877v-.107ZM101.179 28.914c1.868 0 3.358 1.214 3.358 3.217a3.862 3.862 0 0 1-3.864 3.87h-.077c-1.885 0-3.375-1.216-3.375-3.2.005-2.151 1.743-3.887 3.882-3.881h.071m1.69 3.324a1.688 1.688 0 0 0-1.555-1.813c-.077 0-.159-.006-.236 0a2.19 2.19 0 0 0-2.209 2.168v.089a1.678 1.678 0 0 0 1.561 1.795h.23a2.178 2.178 0 0 0 2.209-2.15v-.101M110.517 32.457a3 3 0 0 0 .053-.557 1.366 1.366 0 0 0-1.243-1.475c-.089-.006-.183 0-.271 0-.907 0-1.585.515-1.815 1.706l-.718 3.691h-1.626l.742-3.845c.395-2.032 1.708-3.063 3.511-3.063 1.803 0 3.075.966 3.075 2.79 0 .309-.035.61-.094.913l-.624 3.2h-1.638l.648-3.366v.006ZM117.386 31.023c-.03-.397-.383-.693-1.125-.693-.69 0-1.055.272-1.055.67 0 .48.53.627 1.231.805.896.231 2.168.587 2.168 1.95 0 1.54-1.148 2.245-2.816 2.245-1.667 0-2.886-.776-2.886-2.169h1.626c0 .45.459.765 1.325.765.76 0 1.125-.26 1.125-.652 0-.515-.595-.652-1.219-.818-.99-.26-2.18-.574-2.18-1.907 0-1.54 1.125-2.3 2.71-2.3s2.71.789 2.71 2.11h-1.614v-.006Z"/></g><defs><clipPath id="a"><path fill="#fff" d="M0 0h119v36H0z"/></clipPath></defs></svg>
